X:1
T:Title
%%score 1 { 2 | 3 }
L:1/8
Q:1/4=98
M:6/8
K:Ab
V:1 treble nm="Grand Piano, Soprano"
V:2 bass nm="Choir Pad, Ludhiana, J. H. Leslie"
V:3 bass 
V:1
 [CE] [CA]2 [CA] [EA]2 | [FB] [Ec]2 [DB] [CA]2 | [CE] [EB]2 [EB] [EB]2 | [Ec] [Fd]2 [Ec] [EB]2 | %4
w: By~J.~H.~Leslie,~1882 * * *||||
 E [Ec]2 [Ec] [Ec]2 | [Ed] [Ee]2 [Fd] [Ec]2 | [EA] [FB]2- [FB] [EG]2- | [EG] [EA]2- [EA]3- | %8
w: ||||
 [EA]3 z3 |] %9
w: |
V:2
 A, E,2 E, A,2 | A, A,2 G, A,2 | A, G,2 G, G,2 | A, A,2 A, G,2 | G, A,2 A, A,2 | B, C2 A, A,2 | %6
 A,[K:treble] D2- D B,2- | B, C2- C3- | C3 z3 |] %9
V:3
 A,, A,,2 A,, C,2 | D, E,2 .E,3 | z E,2 E, E,2 | z D,2 A,, E,2 | .E,3 z3 | A, A,2 z3 | %6
 C, D,2- D, E,2- | E, A,,2- A,,3- | A,,3 z3 |] %9

